X: 14962
T: Geese In The Bog, The
R: jig
M: 6/8
K: Aminor
B|:cEE GEE|cEE GAB|cBA GED|CEG A2B|
cEE GEE|cEE dEE|cBA GED|EAA A2B:|
|:cBc dcd|eaa ged|cde ged|eaa a2B|
cBc dcd|eaa ged|cBA BAG|EAA A2B:|

